app/assets/images/icons/socal-lj.svg

<svg width="120" height="120" viewBox="0 0 120 120" fill="none" xmlns="http://www.w3.org/2000/svg">
<path d="M106.374 77.1216C106.23 74.3409 105.26 71.6665 103.587 69.4401L55.4349 5.32909C52.535 1.74926 47.9164 0 42.5952 0C36.1306 0 29.2469 3.20576 22.5431 8.28779C10.3088 17.5552 8.31792 29.7912 14.1325 38.1692L60.882 101.48C62.5993 103.805 64.9945 105.542 67.7386 106.452L103.045 118.158C105.717 119.044 108.444 116.965 108.298 114.153L106.374 77.1216ZM95.2142 102.135C93.4803 103.45 92.3292 105.252 91.7987 107.21L71.3224 100.388C75.9488 93.3031 77.4735 85.2006 75.59 76.9948C82.9214 81.0757 91.673 81.3977 99.7302 78.8709L101.007 100.237C98.9885 100.207 96.948 100.82 95.2142 102.135ZM53.7595 15.9201L58.692 22.5043C52.9298 23.1321 46.5924 25.6582 40.8378 30.0153C35.0682 34.3873 30.8979 39.8209 28.7083 45.2241L23.7832 38.6473C23.9625 37.8102 24.194 37.0628 24.4033 36.4427C25.2478 34.0211 26.5783 31.6146 28.3496 29.2679C30.233 26.7718 32.5421 24.4923 35.1878 22.4818C37.8334 20.4788 40.651 18.8869 43.5581 17.7509C46.286 16.6823 48.9616 16.0619 51.5101 15.9199C52.1602 15.883 52.9224 15.868 53.7595 15.9201ZM70.1868 64.7381L46.2037 32.7435C48.1993 31.4506 50.277 30.3743 52.4067 29.5446C55.1273 28.4758 57.8102 27.8631 60.359 27.7059C61.0019 27.676 61.7639 27.6686 62.6009 27.7134L97.3307 74.0347C94.0125 74.9469 90.5147 75.1861 87.0099 74.6924C80.2609 73.7362 74.2894 70.2009 70.1868 64.7381ZM32.6244 50.441C32.8038 49.6116 33.0355 48.8642 33.2448 48.2436C34.0967 45.822 35.4195 43.4081 37.1982 41.0688C38.5734 39.2378 40.1801 37.5263 41.9664 35.9569L65.9416 67.9444L65.9342 67.9518C70.0373 73.4148 71.7789 80.1638 70.8299 86.942C70.3365 90.4771 69.133 93.7955 67.3469 96.7478L32.6244 50.441ZM28.8054 13.9848C31.3389 12.0714 34.0218 10.5843 36.7797 9.57527C39.2311 8.68582 41.6675 8.21514 43.8197 8.21514C46.3908 8.21514 48.416 8.88767 49.3653 10.0687L49.851 10.7039C44.0888 11.3391 37.7514 13.8652 31.9966 18.2223C26.227 22.5871 22.0566 28.0279 19.8745 33.4313L19.3811 32.7736C17.2212 29.6645 19.8144 20.7929 28.8054 13.9848Z" fill="black"/>
</svg>

<svg width="120" height="120" fill="none" xmlns="http://www.w3.org/2000/svg"><path d="M106.374 77.122a13.99 13.99 0 0 0-2.787-7.682L55.435 5.33C52.535 1.75 47.916 0 42.595 0c-6.464 0-13.348 3.206-20.052 8.288-12.234 9.267-14.225 21.503-8.41 29.881l46.749 63.311a14.005 14.005 0 0 0 6.857 4.972l35.306 11.706c2.672.886 5.399-1.193 5.253-4.005l-1.924-37.031zm-11.16 25.013a9.442 9.442 0 0 0-3.415 5.075l-20.477-6.822c4.627-7.085 6.151-15.187 4.268-23.393 7.331 4.08 16.083 4.403 24.14 1.876l1.277 21.366a9.316 9.316 0 0 0-5.793 1.898zM53.76 15.92l4.932 6.584c-5.762.628-12.1 3.154-17.854 7.511-5.77 4.372-9.94 9.806-12.13 15.21l-4.925-6.578c.18-.837.411-1.584.62-2.204.845-2.422 2.175-4.828 3.947-7.175 1.883-2.496 4.192-4.776 6.838-6.786 2.645-2.003 5.463-3.595 8.37-4.731 2.728-1.069 5.404-1.69 7.952-1.831.65-.037 1.412-.052 2.25 0zm16.427 48.818L46.204 32.743a34.402 34.402 0 0 1 6.203-3.198c2.72-1.07 5.403-1.682 7.952-1.84a23.088 23.088 0 0 1 2.242.008l34.73 46.322a25.46 25.46 0 0 1-10.321.657c-6.75-.956-12.72-4.491-16.823-9.954zM32.624 50.441c.18-.83.411-1.577.62-2.197.853-2.422 2.175-4.836 3.954-7.175a34.089 34.089 0 0 1 4.768-5.112l23.976 31.987-.008.008c4.103 5.463 5.845 12.212 4.896 18.99a25.804 25.804 0 0 1-3.483 9.806L32.624 50.44zm-3.819-36.456c2.534-1.914 5.217-3.4 7.975-4.41 2.451-.89 4.887-1.36 7.04-1.36 2.57 0 4.596.673 5.545 1.854l.486.635c-5.762.635-12.1 3.161-17.854 7.518-5.77 4.365-9.94 9.806-12.122 15.21l-.494-.658c-2.16-3.11.433-11.981 9.424-18.79z" fill="#000"/></svg>
